svg/media/mic_off_fill.svg

<?xml version="1.0" encoding="UTF-8"?>
<svg width="24px" height="24px" viewBox="0 0 24 24" version="1.1" xmlns="http://www.w3.org/2000/svg" xmlns:xlink="http://www.w3.org/1999/xlink">
    <title>mic_off_fill</title>
    <g id="页面-1" stroke="none" stroke-width="1" fill="none" fill-rule="evenodd">
        <g id="Media" transform="translate(-528.000000, -144.000000)" fill-rule="nonzero">
            <g id="mic_off_fill" transform="translate(528.000000, 144.000000)">
                 <path d="M24,0 L24,24 L0,24 L0,0 L24,0 Z M12.5934901,23.257841 L12.5819402,23.2595131 L12.5108777,23.2950439 L12.4918791,23.2987469 L12.4918791,23.2987469 L12.4767152,23.2950439 L12.4056548,23.2595131 C12.3958229,23.2563662 12.3870493,23.2590235 12.3821421,23.2649074 L12.3780323,23.275831 L12.360941,23.7031097 L12.3658947,23.7234994 L12.3769048,23.7357139 L12.4804777,23.8096931 L12.4953491,23.8136134 L12.4953491,23.8136134 L12.5071152,23.8096931 L12.6106902,23.7357139 L12.6232938,23.7196733 L12.6232938,23.7196733 L12.6266527,23.7031097 L12.609561,23.275831 C12.6075724,23.2657013 12.6010112,23.2592993 12.5934901,23.257841 L12.5934901,23.257841 Z M12.8583906,23.1452862 L12.8445485,23.1473072 L12.6598443,23.2396597 L12.6498822,23.2499052 L12.6498822,23.2499052 L12.6471943,23.2611114 L12.6650943,23.6906389 L12.6699349,23.7034178 L12.6699349,23.7034178 L12.678386,23.7104931 L12.8793402,23.8032389 C12.8914285,23.8068999 12.9022333,23.8029875 12.9078286,23.7952264 L12.9118235,23.7811639 L12.8776777,23.1665331 C12.8752882,23.1545897 12.8674102,23.1470016 12.8583906,23.1452862 L12.8583906,23.1452862 Z M12.1430473,23.1473072 C12.1332178,23.1423925 12.1221763,23.1452606 12.1156365,23.1525954 L12.1099173,23.1665331 L12.0757714,23.7811639 C12.0751323,23.7926639 12.0828099,23.8018602 12.0926481,23.8045676 L12.108256,23.8032389 L12.3092106,23.7104931 L12.3186497,23.7024347 L12.3186497,23.7024347 L12.3225043,23.6906389 L12.340401,23.2611114 L12.337245,23.2485176 L12.337245,23.2485176 L12.3277531,23.2396597 L12.1430473,23.1473072 Z" id="MingCute" fill-rule="nonzero"></path>
                <path d="M4.92933,12.0101 C5.47605,11.9319 5.98265,12.3117 6.06085,12.8584 C6.47663,15.7652 8.97821,18 12,18 C12.6608571,18 13.2968816,17.893102 13.8916373,17.6956793 L14.1855,17.5895 L15.694,19.098 C14.9729125,19.474075 14.1872828,19.7434984 13.3580125,19.8852348 L13,19.9381 L13,21 C13,21.5523 12.5523,22 12,22 C11.48715,22 11.0644908,21.613973 11.0067275,21.1166239 L11,21 L11,19.9381 C7.42844,19.4928 4.58908,16.6936 4.081,13.1416 C4.0028,12.5949 4.38261,12.0883 4.92933,12.0101 Z M12,2 C14.6887316,2 16.8818169,4.12231026 16.9953804,6.78311066 L17,7 L17,12 C17,12.9263636 16.7480165,13.7939669 16.3089632,14.5378963 L16.1717,14.7573 L16.8909,15.4766 C17.4325,14.7163 17.801,13.8245 17.9392,12.8584 C18.0174,12.3117 18.524,11.9319 19.0707,12.0101 C19.6175,12.0883 19.9973,12.5949 19.9191,13.1416 C19.7334692,14.4390769 19.2368325,15.6360947 18.5070561,16.6546298 L18.3198,16.9055 L20.4854,19.071 C20.8759,19.4616 20.8759,20.0947 20.4854,20.4853 C20.1249385,20.8457615 19.5576793,20.8734893 19.1654027,20.5684834 L19.0712,20.4853 L3.51482,4.92891 C3.12429,4.53838 3.12429,3.90522 3.51482,3.51469 C3.8753,3.15421 4.44253503,3.12648077 4.8348235,3.43150231 L4.92903,3.51469 L7.15892,5.74458 C7.71585,3.5908 9.67215,2 12,2 Z M7,10.404 L13.3979,16.802 C12.9543,16.9309 12.4852,17 12,17 C9.23858,17 7,14.7614 7,12 L7,10.404 Z" id="形状" fill="#09244B"></path>
            </g>
        </g>
    </g>
</svg>

<svg xmlns="http://www.w3.org/2000/svg" width="24" height="24"><g fill="none" fill-rule="nonzero"><path d="M24 0v24H0V0h24ZM12.593 23.258l-.011.002-.071.035-.02.004-.014-.004-.071-.035c-.01-.004-.019-.001-.024.005l-.004.01-.017.428.005.02.01.013.104.074.015.004.012-.004.104-.074.012-.016.004-.017-.017-.427c-.002-.01-.009-.017-.017-.018Zm.265-.113-.013.002-.185.093-.01.01-.003.011.018.43.005.012.008.007.201.093c.012.004.023 0 .029-.008l.004-.014-.034-.614c-.003-.012-.01-.02-.02-.022Zm-.715.002a.023.023 0 0 0-.027.006l-.006.014-.034.614c0 .012.007.02.017.024l.015-.002.201-.093.01-.008.004-.011.017-.43-.003-.012-.01-.01-.184-.092Z"/><path fill="#09244B" d="M4.93 12.01a1 1 0 0 1 1.13.848 6.001 6.001 0 0 0 7.832 4.838l.293-.107 1.509 1.509a7.94 7.94 0 0 1-2.336.787l-.358.053V21a1 1 0 0 1-1.993.117L11 21v-1.062a8.005 8.005 0 0 1-6.919-6.796 1 1 0 0 1 .848-1.132ZM12 2a5 5 0 0 1 4.995 4.783L17 7v5c0 .926-.252 1.794-.691 2.538l-.137.22.719.719c.542-.76.91-1.652 1.048-2.619a1 1 0 0 1 1.98.284 7.96 7.96 0 0 1-1.412 3.513l-.187.25 2.165 2.166a1 1 0 0 1-1.32 1.497l-.094-.083L3.515 4.93a1 1 0 0 1 1.32-1.497l.094.083 2.23 2.23A5.002 5.002 0 0 1 12 2Zm-5 8.404 6.398 6.398A5 5 0 0 1 7 12v-1.596Z"/></g></svg>
